assets/icons/link2.svg

<svg width="23" height="22" viewBox="0 0 23 22" fill="none" xmlns="http://www.w3.org/2000/svg">
<path fill-rule="evenodd" clip-rule="evenodd" d="M14.4397 8.06048C14.7976 8.41846 14.7976 8.99886 14.4397 9.35688L9.85635 13.9402C9.49837 14.2982 8.91797 14.2982 8.55999 13.9402C8.20201 13.5822 8.20201 13.0018 8.55999 12.6438L13.1433 8.06048C13.5013 7.7025 14.0817 7.7025 14.4397 8.06048Z" fill="white"/>
<path fill-rule="evenodd" clip-rule="evenodd" d="M10.8517 3.5177C13.097 1.27242 16.7374 1.27242 18.9827 3.5177C21.228 5.76299 21.228 9.40334 18.9827 11.6486L16.7314 13.8998C16.3735 14.2577 15.793 14.2577 15.4351 13.8998C15.0771 13.5418 15.0771 12.9614 15.4351 12.6034L17.6862 10.3522C19.2156 8.82291 19.2156 6.34339 17.6862 4.81407C16.157 3.28475 13.6775 3.28475 12.1481 4.81407L9.89694 7.06526C9.53893 7.42324 8.95853 7.42324 8.60055 7.06526C8.24256 6.70728 8.24256 6.12688 8.60055 5.7689L10.8517 3.5177ZM7.56477 8.10104C7.92275 8.45902 7.92275 9.03942 7.56477 9.39739L5.31357 11.6486C3.78425 13.1779 3.78425 15.6574 5.31357 17.1868C6.84289 18.716 9.32241 18.716 10.8517 17.1868L13.1029 14.9355C13.4609 14.5776 14.0413 14.5776 14.3992 14.9355C14.7573 15.2936 14.7573 15.8739 14.3992 16.232L12.1481 18.4831C9.90281 20.7284 6.2625 20.7284 4.01721 18.4831C1.77193 16.2378 1.77193 12.5975 4.01721 10.3522L6.2684 8.10104C6.62639 7.74306 7.20678 7.74306 7.56477 8.10104Z" fill="white"/>
</svg>

<svg xmlns="http://www.w3.org/2000/svg" width="23" height="22" fill="none" viewBox="0 0 23 22"><path fill="#fff" fill-rule="evenodd" d="M14.44 8.06a.917.917 0 0 1 0 1.297L9.856 13.94a.917.917 0 1 1-1.296-1.296l4.583-4.584a.917.917 0 0 1 1.297 0" clip-rule="evenodd"/><path fill="#fff" fill-rule="evenodd" d="M10.852 3.518a5.75 5.75 0 0 1 8.13 8.13l-2.25 2.252a.917.917 0 0 1-1.297-1.297l2.251-2.25a3.916 3.916 0 1 0-5.538-5.539L9.897 7.065A.917.917 0 0 1 8.6 5.77zM7.565 8.1a.917.917 0 0 1 0 1.296L5.314 11.65a3.916 3.916 0 0 0 5.538 5.538l2.25-2.252a.917.917 0 0 1 1.297 1.297l-2.25 2.251a5.75 5.75 0 1 1-8.132-8.13L6.268 8.1a.917.917 0 0 1 1.297 0" clip-rule="evenodd"/></svg>
